X:6
T:Jsus, berger de toute humanit - G310-1
C:J. Berthier
M:C
L:1/8
K:C
z E|E3 C G3 G|AB cA B3G|AB cA G2 C2|FF EG D4|
FF EE D3G|F2 FE D2 GG|AA BB c4|FE DD C4|]
